X:14
T: Vetettem violát
M:2/4
L:1/4
K:C
d/d/ d/B/ | d<G z/ |
e/e/ e/c/ | e<d z/ |
d/e/ ^f/g/ | a<g |
e>c | B<A | G2 | G<z |
W: Vetettem violát,
W: Várom kikeletjét,
W: Várom a babámnak,
W: Haza jövetelét.
W: 
W: Kikőtt a viola,
W: De nem igen teljes,
W: Hazajött a babám,
W: De nem igen kedves.
W: 
W: Hervad az a fűszáll
W: Kit a kasza levág.
W: Hervad az a kislány,
W: Kit babája elhágy.

